X:427
T: "Die Kindesmoerderin"
N: Z1107
O: Europa, Mitteleuropa, Deutschland
R: Romanze, Ballade, Tod
M: 6/8
L: 1/16
K: G
D2 | G4A2_B2A2G2 | G6F4
D2 | G4A2_B2A2G2 | F6z4
GA | _B4B2c4A2 | G6d4
_B2 | A4G2F2G2A2 | G4z6

